Images/rooms_and_spaces.svg

<svg width="41" height="40" viewBox="0 0 41 40" fill="none" xmlns="http://www.w3.org/2000/svg">
<path d="M24.1705 39.2198L4.8646 28.6099C3.83362 28.0433 3.82641 26.5645 4.85182 25.9878L14.6444 20.4811C15.1841 20.1777 15.8338 20.1412 16.404 20.3825L37.9827 29.5119C39.4688 30.1407 39.6368 32.18 38.2735 33.0435L28.7456 39.0778C27.3603 39.9551 25.6075 40.0095 24.1705 39.2198Z" fill="#E2E2E2"/>
<path d="M6.4117 4.72757L15.9686 0.65293C16.6942 0.343556 17.5 0.875977 17.5 1.6648V13.4884L5.5 20V6.10739C5.5 5.50633 5.8588 4.9633 6.4117 4.72757Z" fill="#C2C7EC" stroke="black" stroke-width="0.5"/>
<rect x="34.25" y="24.75" width="1.5" height="6.5" rx="0.75" fill="#3543BF" stroke="black" stroke-width="0.5"/>
<rect x="24.25" y="29.75" width="1.5" height="6.5" rx="0.75" fill="#3543BF" stroke="black" stroke-width="0.5"/>
<rect x="5.25" y="19.75" width="1.5" height="6.5" rx="0.75" fill="#3543BF" stroke="black" stroke-width="0.5"/>
<path d="M34.7107 10.2976L16.7948 0.658584C16.6615 0.586897 16.5 0.683407 16.5 0.834711V12.8529C16.5 12.9214 16.5351 12.9852 16.593 13.0219L35.193 24.8055C35.3261 24.8898 35.5 24.7942 35.5 24.6365V11.6185C35.5 11.0665 35.1968 10.5591 34.7107 10.2976Z" fill="#EFF1FF" stroke="#0F0F0F" stroke-width="0.5"/>
<path d="M5.09143 19.436C4.89498 19.2641 4.7892 19.0696 4.78353 18.875V20.6034C4.78353 20.8055 4.88742 21.0076 5.09143 21.1833C5.15376 21.238 5.22743 21.289 5.31055 21.3381C10.9867 24.6532 23.1702 31.6478 23.5612 31.8745C24.2242 32.2579 25.2895 32.2844 26.0016 31.9311C29.5056 30.1934 32.779 28.3063 35.7881 26.2814C36.0771 26.0869 36.2188 25.847 36.2188 25.6071V23.8598C36.2188 24.0997 36.0771 24.3396 35.7881 24.5342C32.779 26.5572 29.5075 28.4461 26.0016 30.1839C25.2895 30.5371 24.2242 30.5107 23.5612 30.1272C23.1702 29.9006 10.9848 22.9059 5.31055 19.5909C5.22743 19.5418 5.15565 19.4908 5.09143 19.436Z" fill="#3543BF"/>
<path d="M5 18.5V19L5.5 19.5L6.5 20L24 30.5H25.5L28.5 29L34 25.5L36 24V23.5L23.5 16L17 12.5H15.5L12 14L5 18.5Z" fill="#C2C7EC"/>
<path d="M15.7375 14.0108C18.0196 14.469 20.0009 16.3255 20.806 17.3113C20.8639 17.3821 20.8637 17.4823 20.8053 17.5527C19.3623 19.2922 16.004 21.1936 14.1816 21.9287C14.0809 21.9693 13.9676 21.9195 13.9221 21.8209C12.8862 19.5749 10.0385 18.2395 8.58603 18.0155C8.49215 18.001 8.45883 17.8723 8.53673 17.8179C11.6535 15.6428 13.1331 14.9574 15.6294 14.0199C15.6638 14.007 15.7016 14.0035 15.7375 14.0108Z" fill="url(#paint0_linear_1227_34764)" stroke="#0F0F0F" stroke-width="0.5"/>
<path d="M8.56144 18.1363C9.37444 19.8155 12.2364 21.4801 13.7928 21.9435C13.8744 21.9678 13.941 21.8833 13.9009 21.808C12.8929 19.9142 11.0007 18.0779 8.6503 18.0024C8.57897 18.0001 8.53035 18.0721 8.56144 18.1363Z" fill="#F2A526" stroke="#0F0F0F" stroke-width="0.5"/>
<path d="M24.836 30.7161C25.2931 30.7161 25.7502 30.6235 26.1261 30.4365C29.6395 28.695 32.9432 26.7872 35.9447 24.7679C36.3036 24.5261 36.5 24.2031 36.5 23.8594V23.8329C36.4943 23.4627 36.2563 23.1246 35.8313 22.879L17.5807 12.3427C17.4881 12.2879 17.3842 12.2388 17.2747 12.1972C16.5248 11.9064 15.5615 11.9404 14.8739 12.2785C11.3681 14.0163 8.06626 15.9241 5.05534 17.949C4.72289 18.1738 4.52644 18.4703 4.5 18.7858C4.5 18.8065 4.5 18.8273 4.5 18.8481C4.5 18.8632 4.5 18.8802 4.5 18.8972C4.51133 19.1711 4.65111 19.4318 4.90423 19.6509C4.98167 19.717 5.06856 19.7793 5.1649 19.836C8.82371 21.9723 20.2195 28.5269 22.2425 29.6942L23.4174 30.3723C23.8122 30.6009 24.3222 30.7161 24.8341 30.7161H24.836ZM16.1659 12.5675C16.4795 12.5675 16.7968 12.6204 17.0707 12.7261C17.1538 12.7582 17.2294 12.7941 17.2974 12.8338L35.548 23.3701C35.7898 23.5099 35.9295 23.6837 35.9333 23.8443C35.9333 24.0105 35.8238 24.1673 35.6273 24.2995C32.6466 26.3036 29.3656 28.1982 25.8749 29.9303C25.2553 30.2382 24.2807 30.2174 23.7026 29.8831C23.7026 29.8831 9.11083 21.4831 5.45202 19.3468C5.3859 19.309 5.32734 19.2655 5.27634 19.2221C5.18189 19.1409 5.07045 19.0124 5.06667 18.867C5.06667 18.8632 5.06667 18.8575 5.06667 18.8538V18.8405C5.078 18.6894 5.18567 18.544 5.37267 18.4174C8.36282 16.4076 11.6439 14.5112 15.1251 12.7847C15.4217 12.6392 15.7919 12.5656 16.1659 12.5656V12.5675Z" fill="#0F0F0F"/>
<path d="M24.836 32.4636C25.2931 32.4636 25.7502 32.371 26.1261 32.184C29.6395 30.4425 32.9413 28.5347 35.9447 26.5154C36.3036 26.2736 36.5 25.9506 36.5 25.6068V23.8596C36.5 23.7028 36.3734 23.5763 36.2167 23.5763C36.0599 23.5763 35.9333 23.7028 35.9333 23.8596V25.6068C35.9333 25.7561 35.8238 25.9129 35.6273 26.047C32.6466 28.0511 29.3656 29.9457 25.8749 31.6778C25.2553 31.9857 24.2807 31.9649 23.7026 31.6306C23.6479 31.5985 8.68582 22.9831 5.4539 21.0942C5.38778 21.0546 5.32923 21.013 5.27823 20.9696C5.18189 20.8865 5.06856 20.7561 5.06856 20.6031V18.8068C5.06856 18.65 4.94201 18.5234 4.78523 18.5234C4.62845 18.5234 4.50189 18.65 4.50189 18.8068V20.6031C4.50189 20.8921 4.64167 21.1679 4.90801 21.3984C4.98545 21.4645 5.07235 21.5268 5.16868 21.5835C8.40249 23.4724 23.3645 32.0877 23.4212 32.1198C23.816 32.3484 24.326 32.4636 24.8379 32.4636H24.836Z" fill="#0F0F0F"/>
<defs>
<linearGradient id="paint0_linear_1227_34764" x1="20.9023" y1="22" x2="13.6631" y2="10.595" gradientUnits="userSpaceOnUse">
<stop stop-color="#43E1A8"/>
<stop offset="1" stop-color="#219393"/>
</linearGradient>
</defs>
</svg>

<svg width="41" height="40" viewBox="0 0 41 40" fill="none" xmlns="http://www.w3.org/2000/svg">
    <path d="M24.17 39.22 4.866 28.61a1.5 1.5 0 0 1-.013-2.622l9.792-5.507a2 2 0 0 1 1.76-.099l21.579 9.13c1.486.629 1.654 2.668.29 3.532l-9.527 6.034a4.5 4.5 0 0 1-4.575.142z" fill="#E2E2E2"/>
    <path d="M6.412 4.728 15.969.653A1.1 1.1 0 0 1 17.5 1.665v11.823L5.5 20V6.107a1.5 1.5 0 0 1 .912-1.38z" fill="#C2C7EC" stroke="#000" stroke-width=".5"/>
    <rect x="34.25" y="24.75" width="1.5" height="6.5" rx=".75" fill="#3543BF" stroke="#000" stroke-width=".5"/>
    <rect x="24.25" y="29.75" width="1.5" height="6.5" rx=".75" fill="#3543BF" stroke="#000" stroke-width=".5"/>
    <rect x="5.25" y="19.75" width="1.5" height="6.5" rx=".75" fill="#3543BF" stroke="#000" stroke-width=".5"/>
    <path d="M34.71 10.298 16.796.658a.2.2 0 0 0-.295.177v12.018a.2.2 0 0 0 .093.169l18.6 11.783a.2.2 0 0 0 .307-.168V11.618a1.5 1.5 0 0 0-.79-1.32z" fill="#EFF1FF" stroke="#0F0F0F" stroke-width=".5"/>
    <path d="M5.091 19.436c-.196-.172-.302-.366-.307-.561v1.728c0 .202.103.405.307.58.063.055.136.106.22.155 5.676 3.315 17.86 10.31 18.25 10.537.663.383 1.729.41 2.44.056 3.505-1.738 6.778-3.625 9.787-5.65.29-.194.43-.434.43-.674V23.86c0 .24-.14.48-.43.674-3.009 2.023-6.28 3.912-9.786 5.65-.712.353-1.778.327-2.44-.057-.392-.226-12.577-7.221-18.251-10.536-.084-.05-.155-.1-.22-.155z" fill="#3543BF"/>
    <path d="M5 18.5v.5l.5.5 1 .5L24 30.5h1.5l3-1.5 5.5-3.5 2-1.5v-.5L23.5 16 17 12.5h-1.5L12 14l-7 4.5z" fill="#C2C7EC"/>
    <path d="M15.738 14.01c2.282.459 4.263 2.316 5.068 3.301a.189.189 0 0 1 0 .242c-1.444 1.74-4.802 3.64-6.624 4.376a.204.204 0 0 1-.26-.108c-1.036-2.246-3.883-3.582-5.336-3.806-.094-.014-.127-.143-.05-.197 3.117-2.175 4.597-2.86 7.093-3.798a.197.197 0 0 1 .109-.01z" fill="url(#dv2o3jn3sa)" stroke="#0F0F0F" stroke-width=".5"/>
    <path d="M8.561 18.136c.813 1.68 3.675 3.344 5.232 3.808a.093.093 0 0 0 .108-.136c-1.008-1.894-2.9-3.73-5.25-3.806a.093.093 0 0 0-.09.134z" fill="#F2A526" stroke="#0F0F0F" stroke-width=".5"/>
    <path d="M24.836 30.716a2.94 2.94 0 0 0 1.29-.28c3.514-1.741 6.817-3.649 9.819-5.668.359-.242.555-.565.555-.909v-.026c-.006-.37-.244-.708-.669-.954l-18.25-10.536a1.998 1.998 0 0 0-.306-.146c-.75-.29-1.713-.257-2.401.082-3.506 1.737-6.808 3.645-9.819 5.67-.332.225-.529.521-.555.837v.112c.011.273.151.534.404.753.078.066.165.128.26.185 3.66 2.136 15.056 8.69 17.079 9.858l1.174.678c.395.229.905.344 1.417.344h.002zm-8.67-18.149c.314 0 .63.053.905.16.083.031.158.067.226.107L35.548 23.37c.242.14.381.314.385.474 0 .166-.11.323-.306.455-2.98 2.005-6.261 3.9-9.752 5.631-.62.308-1.594.287-2.172-.047 0 0-14.592-8.4-18.251-10.536a1.163 1.163 0 0 1-.176-.125c-.094-.081-.206-.21-.21-.355v-.027c.012-.15.12-.296.307-.423 2.99-2.01 6.27-3.906 9.752-5.632.297-.146.667-.22 1.04-.22v.003z" fill="#0F0F0F"/>
    <path d="M24.836 32.464a2.94 2.94 0 0 0 1.29-.28c3.514-1.741 6.815-3.65 9.819-5.669.359-.241.555-.564.555-.908V23.86a.283.283 0 1 0-.567 0v1.747c0 .15-.11.306-.306.44-2.98 2.004-6.261 3.899-9.752 5.63-.62.309-1.594.288-2.172-.046-.055-.032-15.017-8.648-18.25-10.537a1.306 1.306 0 0 1-.175-.124c-.096-.083-.21-.214-.21-.367v-1.796a.283.283 0 1 0-.566 0v1.796c0 .29.14.565.406.795.077.067.164.129.26.186 3.234 1.888 18.196 10.504 18.253 10.536.395.228.905.344 1.417.344h-.002z" fill="#0F0F0F"/>
    <defs>
        <linearGradient id="dv2o3jn3sa" x1="20.902" y1="22" x2="13.663" y2="10.595" gradientUnits="userSpaceOnUse">
            <stop stop-color="#43E1A8"/>
            <stop offset="1" stop-color="#219393"/>
        </linearGradient>
    </defs>
</svg>
